public/icons/lock-icon.svg

<svg width="100" height="100" viewBox="0 0 100 100" fill="none" xmlns="http://www.w3.org/2000/svg">
<path d="M58.3332 62.5C58.3332 67.125 54.6248 70.8333 49.9998 70.8333C47.7897 70.8333 45.6701 69.9553 44.1073 68.3925C42.5445 66.8297 41.6665 64.7101 41.6665 62.5C41.6665 57.875 45.3748 54.1666 49.9998 54.1666C52.21 54.1666 54.3296 55.0446 55.8924 56.6074C57.4552 58.1702 58.3332 60.2898 58.3332 62.5ZM54.5415 83.3333C55.0415 86.3333 56.0832 89.125 57.5415 91.6666H24.9998C22.7897 91.6666 20.6701 90.7887 19.1073 89.2258C17.5445 87.663 16.6665 85.5434 16.6665 83.3333V41.6666C16.6665 37.0416 20.3748 33.3333 24.9998 33.3333H29.1665V25C29.1665 13.5 38.4998 4.16663 49.9998 4.16663C61.4998 4.16663 70.8332 13.5 70.8332 25V33.3333H74.9998C77.21 33.3333 79.3296 34.2113 80.8924 35.7741C82.4552 37.3369 83.3332 39.4565 83.3332 41.6666V54.5416C81.9582 54.3333 80.5832 54.1666 79.1665 54.1666C77.7498 54.1666 76.3748 54.3333 74.9998 54.5416V41.6666H24.9998V83.3333H54.5415ZM37.4998 33.3333H62.4998V25C62.4998 18.0833 56.9165 12.5 49.9998 12.5C43.0832 12.5 37.4998 18.0833 37.4998 25V33.3333ZM88.9165 66L73.9582 80.9583L67.3332 74.3333L62.4998 79.1666L73.9582 91.6666L93.7498 71.875L88.9165 66Z" fill="#1A4F8E"/>
</svg>

<svg xmlns="http://www.w3.org/2000/svg" width="100" height="100" fill="none"><path fill="#1A4F8E" d="M58.333 62.5A8.305 8.305 0 0 1 50 70.833a8.333 8.333 0 0 1-8.333-8.333A8.305 8.305 0 0 1 50 54.167a8.333 8.333 0 0 1 8.333 8.333m-3.791 20.833c.5 3 1.541 5.792 3 8.334H25a8.333 8.333 0 0 1-8.333-8.334V41.667A8.304 8.304 0 0 1 25 33.333h4.166V25C29.167 13.5 38.5 4.167 50 4.167S70.833 13.5 70.833 25v8.333H75a8.333 8.333 0 0 1 8.333 8.334v12.875c-1.375-.209-2.75-.375-4.166-.375s-2.792.166-4.167.375V41.667H25v41.666zm-17.042-50h25V25c0-6.917-5.584-12.5-12.5-12.5S37.5 18.083 37.5 25zM88.917 66 73.958 80.958l-6.625-6.625-4.833 4.834 11.458 12.5L93.75 71.875z"/></svg>
